**harm	**harte	**timestamp	**phrase	**leadinstrument	**kern
*M4/4	*M4/4	*	*	*	*
*F:	*F:	*	*	*	*F:
1r;	N	0	.	r	1r;
=1	=1	=1	=1	=1	=1
*>A_intro	*>A_intro	*>A_intro	*>A_intro	*>A_intro	*>A_intro
1r	N	0.743	newline	r	1r
=2	=2	=2	=2	=2	=2
1r	N	2.988	.	r	1r
=3	=3	=3	=3	=3	=3
1r	N	5.233	.	r	1r
=4	=4	=4	=4	=4	=4
1r	N	7.478	.	r	1r
=5	=5	=5	=5	=5	=5
1r	N	9.723	newline	r	1r
=6	=6	=6	=6	=6	=6
1r	N	11.77	.	r	1r
=7	=7	=7	=7	=7	=7
1r	N	13.816	.	r	1r
=8	=8	=8	=8	=8	=8
1I	F:maj	15.863	.	r	1F 1a 1cc
=9	=9	=9	=9	=9	=9
*>B_chorus	*>B_chorus	*>B_chorus	*>B_chorus	*>B_chorus	*>B_chorus
2I	F:maj	17.91	newline	voice	2F 2a 2cc
2vi	D:min	18.941	.	voice	2D 2f 2a
=10	=10	=10	=10	=10	=10
2I	F:maj	19.972	.	voice	2F 2a 2cc
2vi	D:min	21.003	.	voice	2D 2f 2a
=11	=11	=11	=11	=11	=11
2I	F:maj	22.034	.	voice	2F 2a 2cc
2vi	D:min	23.066	.	voice	2D 2f 2a
=12	=12	=12	=12	=12	=12
2I	F:maj	24.097	.	voice	2F 2a 2cc
2vi	D:min	25.128	.	voice	2D 2f 2a
=13	=13	=13	=13	=13	=13
2ii	G:min	26.159	newline	voice	2G 2b- 2dd
2V	C:maj	27.191	.	voice	2C 2e 2g
=14	=14	=14	=14	=14	=14
2ii	G:min	28.223	.	voice	2G 2b- 2dd
2V	C:maj	29.255	.	voice	2C 2e 2g
=15	=15	=15	=15	=15	=15
1r	N	30.287	.	voice	1r
=16	=16	=16	=16	=16	=16
1I	F:maj	32.352	.	voice	1F 1a 1cc
=17	=17	=17	=17	=17	=17
*>C_verse	*>C_verse	*>C_verse	*>C_verse	*>C_verse	*>C_verse
1I	F:maj	34.416	newline	voice	1F 1a 1cc
=18	=18	=18	=18	=18	=18
1Ib	F:maj/3	36.468	.	voice	1f 1A 1cc
=19	=19	=19	=19	=19	=19
1I	F:maj	38.52	.	voice	1F 1a 1cc
=20	=20	=20	=20	=20	=20
1Ib	F:maj/3	40.572	.	voice	1f 1A 1cc
=21	=21	=21	=21	=21	=21
1ii7	G:min7(11)	42.624	newline	voice	1G 1b- 1dd 1ff
=22	=22	=22	=22	=22	=22
1V	C:maj(11)	44.677	.	voice	1C 1e 1g
=23	=23	=23	=23	=23	=23
1ii7	G:min7(11)	46.73	.	voice	1G 1b- 1dd 1ff
=24	=24	=24	=24	=24	=24
1V	C:maj(11)	48.784	.	voice	1C 1e 1g
=25	=25	=25	=25	=25	=25
1r	N	50.837	newline	voice	1r
=26	=26	=26	=26	=26	=26
1r	N	52.9	.	voice	1r
=27	=27	=27	=27	=27	=27
1I	F:maj	54.964	newline	voice	1F 1a 1cc
=28	=28	=28	=28	=28	=28
1Ib	F:maj/3	57.02	.	voice	1f 1A 1cc
=29	=29	=29	=29	=29	=29
1I	F:maj	59.077	.	voice	1F 1a 1cc
=30	=30	=30	=30	=30	=30
1Ib	F:maj/3	61.133	.	voice	1f 1A 1cc
=31	=31	=31	=31	=31	=31
1ii7	G:min7(11)	63.189	newline	voice	1G 1b- 1dd 1ff
=32	=32	=32	=32	=32	=32
1V	C:maj(11)	65.244	.	voice	1C 1e 1g
=33	=33	=33	=33	=33	=33
1ii7	G:min7(11)	67.298	.	voice	1G 1b- 1dd 1ff
=34	=34	=34	=34	=34	=34
1V	C:maj(11)	69.353	.	voice	1C 1e 1g
=35	=35	=35	=35	=35	=35
*>D_prechorus	*>D_prechorus	*>D_prechorus	*>D_prechorus	*>D_prechorus	*>D_prechorus
1IV	B-:maj	71.407	newline	voice	1B- 1dd 1ff
=36	=36	=36	=36	=36	=36
1IV	B-:maj	73.472	.	voice	1B- 1dd 1ff
=37	=37	=37	=37	=37	=37
2I	F:maj	75.537	newline	voice	2F 2a 2cc
2vi	D:min	76.564	.	voice	2D 2f 2a
=38	=38	=38	=38	=38	=38
2I	F:maj	77.592	.	voice	2F 2a 2cc
2vi	D:min	78.619	.	voice	2D 2f 2a
=39	=39	=39	=39	=39	=39
1IV	B-:maj	79.647	newline	voice	1B- 1dd 1ff
=40	=40	=40	=40	=40	=40
1IV	B-:maj	81.693	.	voice	1B- 1dd 1ff
=41	=41	=41	=41	=41	=41
1r	N	83.739	newline	voice	1r
=42	=42	=42	=42	=42	=42
1r	N	85.806	.	voice	1r
=43	=43	=43	=43	=43	=43
1r	N	87.873	.	voice	1r
=44	=44	=44	=44	=44	=44
1r	N	89.94	.	voice	1r
=45	=45	=45	=45	=45	=45
*>B_chorus	*>B_chorus	*>B_chorus	*>B_chorus	*>B_chorus	*>B_chorus
2I	F:maj	92.007	newline	voice	2F 2a 2cc
2vi	D:min	93.038	.	voice	2D 2f 2a
=46	=46	=46	=46	=46	=46
2I	F:maj	94.069	.	voice	2F 2a 2cc
2vi	D:min	95.101	.	voice	2D 2f 2a
=47	=47	=47	=47	=47	=47
2I	F:maj	96.132	.	voice	2F 2a 2cc
2vi	D:min	97.163	.	voice	2D 2f 2a
=48	=48	=48	=48	=48	=48
2I	F:maj	98.194	.	voice	2F 2a 2cc
2vi	D:min	99.225	.	voice	2D 2f 2a
=49	=49	=49	=49	=49	=49
2ii	G:min	100.256	newline	voice	2G 2b- 2dd
2V	C:maj	101.284	.	voice	2C 2e 2g
=50	=50	=50	=50	=50	=50
2ii	G:min	102.311	.	voice	2G 2b- 2dd
2V	C:maj	103.339	.	voice	2C 2e 2g
=51	=51	=51	=51	=51	=51
1r	N	104.367	.	voice	1r
=52	=52	=52	=52	=52	=52
1I	F:maj	106.422	.	voice	1F 1a 1cc
=53	=53	=53	=53	=53	=53
*>C_solo	*>C_solo	*>C_solo	*>C_solo	*>C_solo	*>C_solo
1I	F:maj	108.477	newline	guitar	1F 1a 1cc
=54	=54	=54	=54	=54	=54
1Ib	F:maj/3	110.535	.	guitar	1f 1A 1cc
=55	=55	=55	=55	=55	=55
1I	F:maj	112.592	.	guitar	1F 1a 1cc
=56	=56	=56	=56	=56	=56
1Ib	F:maj/3	114.65	.	guitar	1f 1A 1cc
=57	=57	=57	=57	=57	=57
1ii7	G:min7(11)	116.708	newline	guitar	1G 1b- 1dd 1ff
=58	=58	=58	=58	=58	=58
1V	C:maj(11)	118.761	.	guitar	1C 1e 1g
=59	=59	=59	=59	=59	=59
1ii7	G:min7(11)	120.814	.	guitar	1G 1b- 1dd 1ff
=60	=60	=60	=60	=60	=60
1V	C:maj(11)	122.868	.	guitar	1C 1e 1g
=61	=61	=61	=61	=61	=61
1r	N	124.921	newline	voice	1r
=62	=62	=62	=62	=62	=62
1r	N	126.964	.	voice	1r
=63	=63	=63	=63	=63	=63
1I	F:maj	129.007	newline	guitar	1F 1a 1cc
=64	=64	=64	=64	=64	=64
1Ib	F:maj/3	131.072	.	guitar	1f 1A 1cc
=65	=65	=65	=65	=65	=65
1I	F:maj	133.137	.	guitar	1F 1a 1cc
=66	=66	=66	=66	=66	=66
1Ib	F:maj/3	135.202	.	guitar	1f 1A 1cc
=67	=67	=67	=67	=67	=67
1ii7	G:min7(11)	137.267	newline	guitar	1G 1b- 1dd 1ff
=68	=68	=68	=68	=68	=68
1V	C:maj(11)	139.32	.	guitar	1C 1e 1g
=69	=69	=69	=69	=69	=69
1ii7	G:min7(11)	141.373	.	guitar	1G 1b- 1dd 1ff
=70	=70	=70	=70	=70	=70
1V	C:maj(11)	143.426	.	guitar	1C 1e 1g
=71	=71	=71	=71	=71	=71
*>D_prechorus	*>D_prechorus	*>D_prechorus	*>D_prechorus	*>D_prechorus	*>D_prechorus
1IV	B-:maj	145.479	newline	voice	1B- 1dd 1ff
=72	=72	=72	=72	=72	=72
1IV	B-:maj	147.522	.	voice	1B- 1dd 1ff
=73	=73	=73	=73	=73	=73
2I	F:maj	149.565	newline	voice	2F 2a 2cc
2vi	D:min	150.594	.	voice	2D 2f 2a
=74	=74	=74	=74	=74	=74
2I	F:maj	151.623	.	voice	2F 2a 2cc
2vi	D:min	152.652	.	voice	2D 2f 2a
=75	=75	=75	=75	=75	=75
1IV	B-:maj	153.681	newline	voice	1B- 1dd 1ff
=76	=76	=76	=76	=76	=76
1IV	B-:maj	155.735	.	voice	1B- 1dd 1ff
=77	=77	=77	=77	=77	=77
1r	N	157.789	newline	voice	1r
=78	=78	=78	=78	=78	=78
1r	N	159.855	.	voice	1r
=79	=79	=79	=79	=79	=79
1r	N	161.922	.	voice	1r
=80	=80	=80	=80	=80	=80
1r	N	163.988	.	voice	1r
=81	=81	=81	=81	=81	=81
*>B_chorus	*>B_chorus	*>B_chorus	*>B_chorus	*>B_chorus	*>B_chorus
2I	F:maj	166.055	newline	voice	2F 2a 2cc
2vi	D:min	167.076	.	voice	2D 2f 2a
=82	=82	=82	=82	=82	=82
2I	F:maj	168.098	.	voice	2F 2a 2cc
2vi	D:min	169.119	.	voice	2D 2f 2a
=83	=83	=83	=83	=83	=83
2I	F:maj	170.141	.	voice	2F 2a 2cc
2vi	D:min	171.162	.	voice	2D 2f 2a
=84	=84	=84	=84	=84	=84
2I	F:maj	172.184	.	voice	2F 2a 2cc
2vi	D:min	173.205	.	voice	2D 2f 2a
=85	=85	=85	=85	=85	=85
2ii	G:min	174.227	newline	voice	2G 2b- 2dd
2V	C:maj	175.255	.	voice	2C 2e 2g
=86	=86	=86	=86	=86	=86
2ii	G:min	176.283	.	voice	2G 2b- 2dd
2V	C:maj	177.311	.	voice	2C 2e 2g
=87	=87	=87	=87	=87	=87
1I	F:maj	178.338	.	voice	1F 1a 1cc
=88	=88	=88	=88	=88	=88
1I	F:maj	180.394	.	voice	1F 1a 1cc
=89	=89	=89	=89	=89	=89
2I	F:maj	182.45	newline	voice	2F 2a 2cc
2vi	D:min	183.483	.	voice	2D 2f 2a
=90	=90	=90	=90	=90	=90
2I	F:maj	184.516	.	voice	2F 2a 2cc
2vi	D:min	185.549	.	voice	2D 2f 2a
=91	=91	=91	=91	=91	=91
2I	F:maj	186.582	.	voice	2F 2a 2cc
2vi	D:min	187.615	.	voice	2D 2f 2a
=92	=92	=92	=92	=92	=92
2I	F:maj	188.648	.	voice	2F 2a 2cc
2vi	D:min	189.681	.	voice	2D 2f 2a
=93	=93	=93	=93	=93	=93
2ii	G:min	190.714	newline	voice	2G 2b- 2dd
2V	C:maj	191.745	.	voice	2C 2e 2g
=94	=94	=94	=94	=94	=94
2ii	G:min	192.776	.	voice	2G 2b- 2dd
2V	C:maj	193.807	.	voice	2C 2e 2g
=95	=95	=95	=95	=95	=95
1r	N	194.838	.	voice	1r
=96	=96	=96	=96	=96	=96
1I	F:maj	196.9	.	voice	1F 1a 1cc
=97	=97	=97	=97	=97	=97
*>_fadeout	*>_fadeout	*>_fadeout	*>_fadeout	*>_fadeout	*>_fadeout
2I	F:maj	198.962	newline	voice	2F 2a 2cc
2vi	D:min	199.987	.	voice	2D 2f 2a
=98	=98	=98	=98	=98	=98
2I	F:maj	201.012	.	voice	2F 2a 2cc
2vi	D:min	202.037	.	voice	2D 2f 2a
=99	=99	=99	=99	=99	=99
2I	F:maj	203.062	.	voice	2F 2a 2cc
2vi	D:min	204.086	.	voice	2D 2f 2a
=100	=100	=100	=100	=100	=100
2I	F:maj	205.111	.	voice	2F 2a 2cc
2vi	D:min	206.136	.	voice	2D 2f 2a
=101	=101	=101	=101	=101	=101
2ii	G:min	207.161	newline	voice	2G 2b- 2dd
2V	C:maj	208.188	.	voice	2C 2e 2g
=102	=102	=102	=102	=102	=102
2ii	G:min	209.216	.	voice	2G 2b- 2dd
2V	C:maj	210.244	.	voice	2C 2e 2g
1r;	N	212.555	.	r	1r;
1r;	N	216.294	.	r	1r;
*-	*-	*-	*-	*-	*-
!!!OTL: Still Cruisin
!!!COC: The Beach Boys
!!!BillboardChartDate: 1989/09/02
!!!BillboardPeak: 93
!!!BillboardWeeksOnChart: 3
!!!SampleTargetRank: 96
!!!SampleActualRank: 95
!!!SampleID#: 0228
!!!RDF**harmony: **recip + pitch class of root + harmonic quality
!!!RDF**harte: Chris Harte's syntax, used by MIREX
!!!RDF**phrase: newline = linebreak in original McGill transcription
!!!RDF**timestamp: McGill audio timestamp in seconds
!!!RDF**leadinstrument: original McGill primary instrumentation annotation
!!!RDT: 2017/01/12/
!!!ENC: Nathaniel Condit-Schultz
!!!EST: Awating manual error checking and editing.
